X:1
T:When Messiah Comes - Bass
T:When Messiah Comes - Bass
L:1/8
Q:1/4=96
M:4/4
K:F
V:1 bass nm="Piano" snm="Pno."
V:1
 z A,/A,/ A,G,/F,/ G,F,/D,/ D,D,/C,/ | C,D, (D,/C,/A,,) z4 | z B,/B,/ B,A,/A,/ A,G,G,F, | %3
w: Theres a cry go- ing up from the heart of je-|ru- sal- lem * *|"Where's the King that the pro- phets said would|
 F,G, G,/F,/D, z4 | z B,/B,/ B,A,/A,/ A,G,/G,/ G,F, | F,G, G,2 z4 | z B,B,A, A,G, G,2 | %7
w: rule our land * *|break the yoke of our bur- den and give us|peace a- gain|Each day we look for him|
 z B,B,B, B,A, A,2- | A,6 z2 | z A,/A,/ A,G,/F,/ G,A,/G,/ F,F,/E,/ | E,F, F,4 z2 | %11
w: oh how we long for him||Moth- ers pray with their child- ren at night that it|will be soon|
 z B,/B,/ B,A,/A,/ A,B, B,A,/A,/ | A,B,/B,/ B,4 z2 | z B,B,A, A,G,/G,/ G,A,/A,/ | A,B,/B,/ B,4 z2 | %15
w: Shep- herds pray as they watch their flocks by the|light of the moon|Old men have vis- ions and dreams of a|King of the Jews|
 z B,B,A, A,G, G,2 | z8 | z8 | z8 | z4 z A,2 A, | D,D, D,2 z D,2 D, | G,,G,, G,,2 z2 A,B, | %22
w: When will He come to rule||||When Mes-|si- ah comes, when Mes-|si- ah comes He'll bring|
 A,B,A,B, A,G,F,G, | A,4 z A,2 A, | D,D, D,2 z D,2 D, | G,,G,, G,,2 z2 A,B, | A,B,A,B, A,G,F,G, | %27
w: peace to ev- 'ry na- tion- when- he|comes He's the|prom- ised one He is|God's own Son we'll have|cause for cel- e- bra- tion when he|
 A,4 z4 |[K:G] z8 | z8 | z B,/B,/ B,A,/G,/ A,G,/G,/ G,F, | F,G, G,4 z2 | z C/C/ CB,/B,/ B,CCB, | %33
w: comes|||For so long we have bowed un- der Ro- man|ty- ran- ny|where's the One who will change the course of|
 B,C C4 z2 | z C/C/ CB,/B,/ B,A,/A,/ A,B, | B,C C4 z2 | z CCB, B,A, A,2 | z8 | z4 z B,,2 B,, | %39
w: his- to- ry|who will rise up and con- quer our dread- ed|en- e- my|He'll change our des- ti- ny||When Mes-|
 E,E, E,2 z E,2 E, | A,,A,, A,,2 z2 B,C | B,CB,C B,A,G,A, | B,4 z B,,2 ^D, | E,E, E,2 z E,2 E, | %44
w: si- ah comes when Mes-|si- ah comes He'll bring|peace to ev- 'ry na- tion when he|comes He's the|prom- ised One He is|
 A,,A,, A,,2 z2 B,C | B,CB,C B,A,G,A, | B,4 z4 | z8 |: E,6 E,2 | A,4 z2 A,2 | F,4 z2 F,2 |1 %51
w: God's own Son We'll have|cause for cel- e- bra- tion when He|comes.||Come Lord|come oh|come we're|
 B,6 B,2 :|2 (B,4- B,)A,(G,F,) ||[K:Ab] F,6 F,2 | B,4 z2 B,2 | G,4 z2 G,2 | C,6 C,2 | %57
w: wait- ing|wait- * * * ing|Come Lord|Come oh|come we're|wait- ing|
 z2 G,,G,, C,2 C,2 | z C,C,C, C,2 C,2- | C,4 z A,2 G, | G,F, F,2 z B,2 A, | CB, B,2 z2 CD | %62
w: come Mes- si- ah|for we are wait- ing|* When Mes-|si- ah comes, when Mes-|si- ah comes He'll Bring|
 CDCD CB,A,B, | C4 z A,2 G, | G,F, F,2 z F,2 F, | B,,B,, B,,2 z2 CD | CDCD CB,A,B, | %67
w: peace to ev- 'ry na- tion when he|comes He's the|Prom- ised one He is|God's own son we'll have|cause for cel- e- bra- tion when he|
 C4 z B,/C/ (B,/A,/)((F,/E,/)) | F,4 z4 | z8 | z2 F,4 B,2 | B,4 C4- | C4 z !>!C!>!C!>!C | F,8- | %74
w: comes When Mes- si- * ah *|comes||When Mes-|si- ah|* Mes- si- ah|comes|
 F,8 | z !>!F,2 !>!C, !>!C,!>!F,!>!F, z |] %76
w: |When Mes- si- ah- comes|

